public/icons/addUser.svg

<?xml version="1.0" encoding="utf-8"?><!-- Uploaded to: SVG Repo, www.svgrepo.com, Generator: SVG Repo Mixer Tools -->
<svg width="800px" height="800px" viewBox="0 0 24 24" fill="none" xmlns="http://www.w3.org/2000/svg">
<circle cx="12" cy="6" r="4" fill="#FFFFFF"/>
<path fill-rule="evenodd" clip-rule="evenodd" d="M16.5 22C14.8501 22 14.0251 22 13.5126 21.4874C13 20.9749 13 20.1499 13 18.5C13 16.8501 13 16.0251 13.5126 15.5126C14.0251 15 14.8501 15 16.5 15C18.1499 15 18.9749 15 19.4874 15.5126C20 16.0251 20 16.8501 20 18.5C20 20.1499 20 20.9749 19.4874 21.4874C18.9749 22 18.1499 22 16.5 22ZM17.0833 16.9444C17.0833 16.6223 16.8222 16.3611 16.5 16.3611C16.1778 16.3611 15.9167 16.6223 15.9167 16.9444V17.9167H14.9444C14.6223 17.9167 14.3611 18.1778 14.3611 18.5C14.3611 18.8222 14.6223 19.0833 14.9444 19.0833H15.9167V20.0556C15.9167 20.3777 16.1778 20.6389 16.5 20.6389C16.8222 20.6389 17.0833 20.3777 17.0833 20.0556V19.0833H18.0556C18.3777 19.0833 18.6389 18.8222 18.6389 18.5C18.6389 18.1778 18.3777 17.9167 18.0556 17.9167H17.0833V16.9444Z" fill="#FFFFFF"/>
<path d="M15.4147 13.5074C14.4046 13.1842 13.24 13 12 13C8.13401 13 5 14.7909 5 17C5 19.1406 7.94244 20.8884 11.6421 20.9949C11.615 20.8686 11.594 20.7432 11.5775 20.6201C11.4998 20.0424 11.4999 19.3365 11.5 18.586V18.414C11.4999 17.6635 11.4998 16.9576 11.5775 16.3799C11.6639 15.737 11.8705 15.0333 12.4519 14.4519C13.0334 13.8705 13.737 13.6639 14.3799 13.5774C14.6919 13.5355 15.0412 13.5162 15.4147 13.5074Z" fill="#FFFFFF"/>
</svg>

<svg xmlns="http://www.w3.org/2000/svg" width="800" height="800" fill="none" viewBox="0 0 24 24"><circle cx="12" cy="6" r="4" fill="#fff"/><path fill="#fff" fill-rule="evenodd" d="M16.5 22c-1.65 0-2.475 0-2.987-.513C13 20.975 13 20.15 13 18.5s0-2.475.513-2.987C14.025 15 14.85 15 16.5 15s2.475 0 2.987.513C20 16.025 20 16.85 20 18.5s0 2.475-.513 2.987C18.975 22 18.15 22 16.5 22m.583-5.056a.583.583 0 1 0-1.166 0v.973h-.973a.583.583 0 1 0 0 1.166h.973v.973a.583.583 0 1 0 1.166 0v-.973h.973a.583.583 0 1 0 0-1.166h-.973z" clip-rule="evenodd"/><path fill="#fff" d="M15.415 13.507A11.3 11.3 0 0 0 12 13c-3.866 0-7 1.79-7 4 0 2.14 2.942 3.888 6.642 3.995a5 5 0 0 1-.064-.375c-.078-.578-.078-1.283-.078-2.034v-.172c0-.75 0-1.456.078-2.034.086-.643.293-1.347.874-1.928.581-.582 1.285-.788 1.928-.875a10 10 0 0 1 1.035-.07"/></svg>
